Obsidian-SemiLight/actions/24s/media-seek-forward.svg

<svg viewBox="0 0 24 24" xmlns="http://www.w3.org/2000/svg"><path d="m12 4c-4.432 0-8 3.568-8 8s3.568 8 8 8 8-3.568 8-8-3.568-8-8-8zm0 1c3.878 0 7 3.122 7 7s-3.122 7-7 7-7-3.122-7-7 3.122-7 7-7zm-4 4v6l4-3zm4 3v3l4-3-4-3z" fill="#4d4d4d"/></svg>

<svg xmlns="http://www.w3.org/2000/svg" viewBox="0 0 24 24">
  <defs id="defs3051">
    <style type="text/css" id="current-color-scheme">
      .ColorScheme-Text {
        color:#4d4d4d;
      }
      </style>
  </defs>
 <path style="fill:currentColor;fill-opacity:1;stroke:none" 
     d="M 12 4 C 7.568 4 4 7.568 4 12 C 4 16.432 7.568 20 12 20 C 16.432 20 20 16.432 20 12 C 20 7.568 16.432 4 12 4 z M 12 5 C 15.878 5 19 8.122 19 12 C 19 15.878 15.878 19 12 19 C 8.122 19 5 15.878 5 12 C 5 8.122 8.122 5 12 5 z M 8 9 L 8 15 L 12 12 L 8 9 z M 12 12 L 12 15 L 16 12 L 12 9 L 12 12 z "
     class="ColorScheme-Text"
     />
</svg>
